svgs/duotone/timeline.svg

<svg xmlns="http://www.w3.org/2000/svg" viewBox="0 0 640 512"><!--! Font Awesome Pro 6.4.0 by @fontawesome - https://fontawesome.com License - https://fontawesome.com/license (Commercial License) Copyright 2023 Fonticons, Inc. --><defs><style>.fa-secondary{opacity:.4}</style></defs><path class="fa-primary" d="M128 72a24 24 0 1 1 0 48 24 24 0 1 1 0-48zm0 104a80 80 0 1 0 0-160 80 80 0 1 0 0 160zM512 72a24 24 0 1 1 0 48 24 24 0 1 1 0-48zm0 104a80 80 0 1 0 0-160 80 80 0 1 0 0 160zM296 416a24 24 0 1 1 48 0 24 24 0 1 1 -48 0zm104 0a80 80 0 1 0 -160 0 80 80 0 1 0 160 0z"/><path class="fa-secondary" d="M512 176c11.4 0 22.2-2.4 32-6.7V224h64c17.7 0 32 14.3 32 32s-14.3 32-32 32H352v54.7c-9.8-4.3-20.6-6.7-32-6.7s-22.2 2.4-32 6.7V288H32c-17.7 0-32-14.3-32-32s14.3-32 32-32H96V169.3c9.8 4.3 20.6 6.7 32 6.7s22.2-2.4 32-6.7V224H480V169.3c9.8 4.3 20.6 6.7 32 6.7z"/></svg>

<svg xmlns="http://www.w3.org/2000/svg" viewBox="0 0 640 512"><!--! Font Awesome Pro 6.3.0 by @fontawesome - https://fontawesome.com License - https://fontawesome.com/license (Commercial License) Copyright 2023 Fonticons, Inc. --><defs><style>.fa-secondary{opacity:.4}</style></defs><path class="fa-primary" d="M48 96C48 51.82 83.82 16 128 16C172.2 16 208 51.82 208 96C208 140.2 172.2 176 128 176C83.82 176 48 140.2 48 96zM128 120C141.3 120 152 109.3 152 96C152 82.75 141.3 72 128 72C114.7 72 104 82.75 104 96C104 109.3 114.7 120 128 120zM432 96C432 51.82 467.8 16 512 16C556.2 16 592 51.82 592 96C592 140.2 556.2 176 512 176C467.8 176 432 140.2 432 96zM512 120C525.3 120 536 109.3 536 96C536 82.75 525.3 72 512 72C498.7 72 488 82.75 488 96C488 109.3 498.7 120 512 120zM400 416C400 460.2 364.2 496 320 496C275.8 496 240 460.2 240 416C240 371.8 275.8 336 320 336C364.2 336 400 371.8 400 416zM320 392C306.7 392 296 402.7 296 416C296 429.3 306.7 440 320 440C333.3 440 344 429.3 344 416C344 402.7 333.3 392 320 392z"/><path class="fa-secondary" d="M512 176C523.4 176 534.2 173.6 544 169.3V224H608C625.7 224 640 238.3 640 256C640 273.7 625.7 288 608 288H352V342.7C342.2 338.4 331.4 336 320 336C308.6 336 297.8 338.4 288 342.7V288H32C14.33 288 0 273.7 0 256C0 238.3 14.33 224 32 224H96V169.3C105.8 173.6 116.6 176 128 176C139.4 176 150.2 173.6 160 169.3V224H480V169.3C489.8 173.6 500.6 176 512 176z"/></svg>
